; generated by PrusaSlicer 2.1.0+win64 on 2019-10-18 at 07:37:52 UTC

; 

; external perimeters extrusion width = 0.45mm
; perimeters extrusion width = 0.45mm
; infill extrusion width = 0.45mm
; solid infill extrusion width = 0.45mm
; top infill extrusion width = 0.40mm
; first layer extrusion width = 0.42mm

M201 X9000 Y9000 Z500 E10000 ; sets maximum accelerations, mm/sec^2
M203 X500 Y500 Z12 E120 ; sets maximum feedrates, mm/sec
M204 P1500 R1500 T1500 ; sets acceleration (P, T) and retract acceleration (R), mm/sec^2
M205 X10.00 Y10.00 Z0.20 E2.50 ; sets the jerk limits, mm/sec
M205 S0 T0 ; sets the minimum extruding and travel feed rate, mm/sec
M107
M190 S70 ; set bed temperature and wait for it to be reached
M104 S235 ; set temperature
G28 ; home all axes
;G29 ; auto level
G1 Z5 F5000 ; lift nozzle
M109 S235 ; set temperature and wait for it to be reached
G21 ; set units to millimeters
G90 ; use absolute coordinates
M82 ; use absolute distances for extrusion
G92 E0
; Filament gcode
G1 Z0.350 F7800.000
G1 E-1.00000 F2400.00000
G92 E0
G1 X79.390 Y93.318 F7800.000
G1 E1.00000 F2400.00000
G1 F1500
G1 X80.883 Y92.709 E1.08253
G1 X82.234 Y92.381 E1.15372
G1 X83.824 Y92.225 E1.23549
G1 X176.008 Y92.224 E5.95432
G1 X177.967 Y92.416 E6.05513
G1 X179.678 Y92.911 E6.14628
G1 X181.413 Y93.765 E6.24530
G1 X183.032 Y95.007 E6.34971
G1 X184.343 Y96.509 E6.45178
G1 X185.245 Y98.018 E6.54178
G1 X185.928 Y99.845 E6.64160
G1 X186.248 Y101.768 E6.74140
G1 X186.255 Y158.132 E9.62663
G1 X186.105 Y159.349 E9.68941
G1 X185.862 Y160.389 E9.74407
G1 X185.413 Y161.605 E9.81045
G1 X184.950 Y162.551 E9.86435
G1 X184.364 Y163.462 E9.91978
G1 X183.559 Y164.460 E9.98542
G1 X182.795 Y165.206 E10.04009
G1 X181.863 Y165.935 E10.10070
G1 X180.610 Y166.682 E10.17534
G1 X179.117 Y167.291 E10.25789
G1 X177.765 Y167.619 E10.32908
G1 X176.176 Y167.775 E10.41084
G1 X83.774 Y167.774 E15.14084
G1 X82.441 Y167.651 E15.20939
G1 X81.365 Y167.433 E15.26559
G1 X80.322 Y167.089 E15.32179
G1 X79.107 Y166.537 E15.39010
G1 X78.136 Y165.934 E15.44861
G1 X77.102 Y165.115 E15.51616
G1 X76.319 Y164.324 E15.57313
G1 X75.565 Y163.362 E15.63569
G1 X74.824 Y162.123 E15.70957
G1 X74.223 Y160.660 E15.79056
G1 X73.892 Y159.332 E15.86060
G1 X73.728 Y157.781 E15.94045
G1 X73.730 Y102.154 E18.78798
G1 X73.861 Y100.859 E18.85461
G1 X74.087 Y99.792 E18.91043
G1 X74.433 Y98.766 E18.96586
G1 X74.989 Y97.561 E19.03379
G1 X75.588 Y96.605 E19.09153
G1 X76.400 Y95.585 E19.15830
G1 X77.187 Y94.809 E19.21489
G1 X78.138 Y94.065 E19.27667
G1 X79.339 Y93.348 E19.34825
G1 X79.515 Y93.646 F7800.000
G1 F1500
G1 X81.009 Y93.031 E19.43097
G1 X82.307 Y92.718 E19.49932
G1 X83.835 Y92.570 E19.57790
G1 X176.007 Y92.568 E24.29616
G1 X177.906 Y92.756 E24.39381
G1 X179.556 Y93.233 E24.48174
G1 X181.236 Y94.061 E24.57762
G1 X182.803 Y95.265 E24.67879
G1 X184.071 Y96.722 E24.77767
G1 X184.939 Y98.179 E24.86446
G1 X185.598 Y99.949 E24.96113
G1 X185.905 Y101.812 E25.05778
G1 X185.912 Y158.098 E27.93904
G1 X185.767 Y159.282 E28.00013
G1 X185.532 Y160.288 E28.05302
G1 X185.095 Y161.472 E28.11762
G1 X184.646 Y162.386 E28.16975
G1 X184.079 Y163.267 E28.22339
G1 X183.295 Y164.238 E28.28727
G1 X182.554 Y164.959 E28.34016
G1 X181.646 Y165.666 E28.39910
G1 X180.434 Y166.385 E28.47122
G1 X178.991 Y166.969 E28.55093
G1 X177.693 Y167.282 E28.61928
G1 X176.158 Y167.430 E28.69822
G1 X83.786 Y167.429 E33.42669
G1 X82.488 Y167.309 E33.49343
G1 X81.446 Y167.098 E33.54783
G1 X80.438 Y166.764 E33.60222
G1 X79.262 Y166.228 E33.66834
G1 X78.328 Y165.648 E33.72462
G1 X77.322 Y164.850 E33.79038
G1 X76.566 Y164.082 E33.84552
G1 X75.834 Y163.146 E33.90638
G1 X75.125 Y161.954 E33.97736
G1 X74.544 Y160.533 E34.05593
G1 X74.229 Y159.258 E34.12314
G1 X74.072 Y157.754 E34.20059
G1 X74.074 Y102.175 E37.04562
G1 X74.202 Y100.915 E37.11048
G1 X74.420 Y99.882 E37.16450
G1 X74.755 Y98.890 E37.21814
G1 X75.293 Y97.723 E37.28389
G1 X75.869 Y96.804 E37.33941
G1 X76.665 Y95.806 E37.40478
G1 X77.423 Y95.061 E37.45917
G1 X78.354 Y94.334 E37.51965
G1 X79.463 Y93.676 E37.58563
G1 X79.638 Y93.974 F7800.000
G1 F1500
G1 X79.736 Y93.916 E37.59140
G1 X81.128 Y93.355 E37.66826
G1 X82.373 Y93.057 E37.73379
G1 X83.853 Y92.915 E37.80992
G1 X176.007 Y92.913 E42.52724
G1 X177.837 Y93.094 E42.62137
G1 X179.427 Y93.553 E42.70610
G1 X181.058 Y94.357 E42.79919
G1 X182.575 Y95.524 E42.89711
G1 X183.795 Y96.929 E42.99240
G1 X184.633 Y98.340 E43.07640
G1 X185.269 Y100.052 E43.16989
G1 X185.563 Y101.862 E43.26374
G1 X185.569 Y158.057 E46.14036
G1 X185.428 Y159.216 E46.20012
G1 X185.204 Y160.181 E46.25086
G1 X184.780 Y161.333 E46.31366
G1 X184.346 Y162.216 E46.36403
G1 X183.798 Y163.068 E46.41588
G1 X183.035 Y164.011 E46.47797
G1 X182.319 Y164.706 E46.52909
G1 X181.430 Y165.397 E46.58671
G1 X180.265 Y166.083 E46.65593
G1 X178.872 Y166.645 E46.73281
G1 X177.627 Y166.943 E46.79834
G1 X176.147 Y167.085 E46.87446
G1 X83.797 Y167.084 E51.60179
G1 X82.542 Y166.968 E51.66635
G1 X81.535 Y166.764 E51.71894
G1 X80.566 Y166.444 E51.77116
G1 X79.423 Y165.923 E51.83545
G1 X78.520 Y165.361 E51.88989
G1 X77.543 Y164.584 E51.95382
G1 X76.813 Y163.841 E52.00715
G1 X76.103 Y162.930 E52.06627
G1 X75.426 Y161.784 E52.13439
G1 X74.868 Y160.413 E52.21014
G1 X74.568 Y159.191 E52.27456
G1 X74.417 Y157.741 E52.34921
G1 X74.419 Y102.189 E55.19290
G1 X74.543 Y100.963 E55.25598
G1 X74.753 Y99.972 E55.30783
G1 X75.075 Y99.019 E55.35931
G1 X75.601 Y97.879 E55.42360
G1 X76.160 Y96.991 E55.47730
G1 X76.930 Y96.027 E55.54048
G1 X77.665 Y95.308 E55.59307
G1 X78.570 Y94.603 E55.65183
G1 X79.587 Y94.004 E55.71221
G1 X79.761 Y94.301 F7800.000
G1 F1500
G1 X79.898 Y94.221 E55.72036
G1 X81.246 Y93.679 E55.79474
G1 X82.439 Y93.396 E55.85749
G1 X83.865 Y93.259 E55.93078
G1 X176.007 Y93.258 E60.64753
G1 X177.776 Y93.433 E60.73851
G1 X179.306 Y93.876 E60.82007
G1 X180.875 Y94.650 E60.90962
G1 X182.346 Y95.782 E61.00462
G1 X183.524 Y97.142 E61.09670
G1 X184.325 Y98.494 E61.17718
G1 X184.938 Y100.149 E61.26749
G1 X185.220 Y101.904 E61.35851
G1 X185.226 Y158.017 E64.23093
G1 X185.091 Y159.143 E64.28897
G1 X184.875 Y160.076 E64.33795
G1 X184.461 Y161.200 E64.39928
G1 X184.043 Y162.052 E64.44790
G1 X183.516 Y162.868 E64.49761
G1 X182.771 Y163.789 E64.55824
G1 X182.078 Y164.459 E64.60759
G1 X181.214 Y165.127 E64.66348
G1 X180.102 Y165.779 E64.72949
G1 X178.753 Y166.321 E64.80388
G1 X177.561 Y166.604 E64.86663
G1 X176.135 Y166.741 E64.93992
G1 X83.809 Y166.740 E69.66610
G1 X82.588 Y166.627 E69.72884
G1 X81.623 Y166.431 E69.77927
G1 X80.687 Y166.121 E69.82971
G1 X79.578 Y165.615 E69.89213
G1 X78.712 Y165.074 E69.94438
G1 X77.764 Y164.319 E70.00644
G1 X77.065 Y163.605 E70.05760
G1 X76.373 Y162.714 E70.11532
G1 X75.727 Y161.614 E70.18061
G1 X75.192 Y160.294 E70.25354
G1 X74.905 Y159.117 E70.31557
G1 X74.761 Y157.721 E70.38742
G1 X74.763 Y102.209 E73.22902
G1 X74.884 Y101.018 E73.29031
G1 X75.086 Y100.061 E73.34038
G1 X75.398 Y99.141 E73.39010
G1 X75.909 Y98.034 E73.45252
G1 X76.446 Y97.183 E73.50404
G1 X77.200 Y96.243 E73.56573
G1 X77.906 Y95.555 E73.61617
G1 X78.786 Y94.873 E73.67317
G1 X79.709 Y94.332 E73.72796
G1 X81.365 Y94.003 F7800.000
G1 F1500
G1 X82.499 Y93.736 E73.78761
G1 X83.876 Y93.604 E73.85842
G1 X176.007 Y93.603 E78.57458
G1 X177.715 Y93.773 E78.66242
G1 X179.186 Y94.200 E78.74083
G1 X180.699 Y94.946 E78.82720
G1 X182.117 Y96.040 E78.91890
G1 X183.251 Y97.354 E79.00774
G1 X184.020 Y98.655 E79.08510
G1 X184.608 Y100.252 E79.17221
G1 X184.877 Y101.946 E79.26001
G1 X184.882 Y157.986 E82.12867
G1 X184.752 Y159.078 E82.18497
G1 X184.545 Y159.977 E82.23221
G1 X184.143 Y161.067 E82.29166
G1 X183.742 Y161.883 E82.33819
G1 X183.234 Y162.670 E82.38614
G1 X182.512 Y163.561 E82.44490
G1 X181.842 Y164.207 E82.49249
G1 X180.999 Y164.856 E82.54697
G1 X179.933 Y165.478 E82.61017
G1 X178.635 Y165.997 E82.68169
G1 X177.501 Y166.265 E82.74134
G1 X176.124 Y166.396 E82.81215
G1 X83.820 Y166.395 E87.53719
G1 X82.635 Y166.285 E87.59809
G1 X81.710 Y166.097 E87.64639
G1 X80.808 Y165.798 E87.69505
G1 X79.733 Y165.306 E87.75557
G1 X78.898 Y164.783 E87.80600
G1 X77.980 Y164.049 E87.86617
G1 X77.312 Y163.363 E87.91519
G1 X76.644 Y162.499 E87.97111
G1 X76.028 Y161.445 E88.03359
G1 X75.514 Y160.168 E88.10404
G1 X75.243 Y159.049 E88.16298
G1 X75.106 Y157.701 E88.23237
G1 X75.108 Y102.222 E91.07228
G1 X75.225 Y101.066 E91.13177
G1 X75.419 Y100.150 E91.17972
G1 X75.718 Y99.269 E91.22732
G1 X76.214 Y98.196 E91.28783
G1 X76.733 Y97.375 E91.33756
G1 X77.460 Y96.469 E91.39701
G1 X78.142 Y95.807 E91.44567
G1 X79.001 Y95.144 E91.50123
G1 X80.068 Y94.522 E91.56443
G1 X81.309 Y94.026 E91.63287
G1 X81.437 Y94.346 F7800.000
G1 F1500
G1 X82.566 Y94.074 E91.69232
G1 X83.887 Y93.949 E91.76027
G1 X176.007 Y93.948 E96.47583
G1 X177.653 Y94.112 E96.56054
G1 X179.059 Y94.521 E96.63549
G1 X180.517 Y95.239 E96.71866
G1 X181.888 Y96.299 E96.80739
G1 X182.979 Y97.566 E96.89297
G1 X183.714 Y98.816 E96.96723
G1 X184.277 Y100.348 E97.05078
G1 X184.535 Y101.987 E97.13570
G1 X184.538 Y157.955 E100.00065
G1 X184.413 Y159.013 E100.05521
G1 X184.214 Y159.879 E100.10071
G1 X183.825 Y160.934 E100.15824
G1 X183.439 Y161.719 E100.20305
G1 X182.948 Y162.477 E100.24925
G1 X182.248 Y163.339 E100.30611
G1 X181.606 Y163.954 E100.35161
G1 X180.790 Y164.581 E100.40429
G1 X179.769 Y165.174 E100.46470
G1 X178.524 Y165.670 E100.53335
G1 X177.441 Y165.925 E100.59030
G1 X176.113 Y166.051 E100.65859
G1 X83.830 Y166.050 E105.38249
G1 X82.688 Y165.944 E105.44120
G1 X81.797 Y165.763 E105.48775
G1 X80.934 Y165.477 E105.53429
G1 X79.893 Y165.001 E105.59287
G1 X79.095 Y164.500 E105.64115
G1 X78.206 Y163.789 E105.69939
G1 X77.563 Y163.127 E105.74662
G1 X76.919 Y162.290 E105.80071
G1 X76.332 Y161.282 E105.86043
G1 X75.838 Y160.050 E105.92837
G1 X75.582 Y158.981 E105.98462
G1 X75.450 Y157.681 E106.05154
G1 X75.452 Y102.242 E108.88941
G1 X75.565 Y101.128 E108.94674
G1 X75.751 Y100.245 E108.99294
G1 X76.038 Y99.396 E109.03879
G1 X76.518 Y98.358 E109.09737
G1 X77.016 Y97.572 E109.14495
G1 X77.725 Y96.691 E109.20284
G1 X78.378 Y96.059 E109.24938
G1 X79.210 Y95.419 E109.30312
G1 X80.231 Y94.826 E109.36353
G1 X81.381 Y94.368 E109.42692
G1 X81.508 Y94.688 F7800.000
G1 F1500
G1 X81.594 Y94.654 E109.43164
G1 X82.627 Y94.414 E109.48592
G1 X83.899 Y94.294 E109.55134
G1 X176.007 Y94.293 E114.26630
G1 X177.592 Y94.451 E114.34788
G1 X178.940 Y94.844 E114.41974
G1 X180.341 Y95.536 E114.49969
G1 X181.660 Y96.557 E114.58508
G1 X182.707 Y97.777 E114.66739
G1 X183.406 Y98.972 E114.73824
G1 X183.946 Y100.445 E114.81856
G1 X184.192 Y102.028 E114.90056
G1 X184.195 Y157.918 E117.76154
G1 X184.075 Y158.942 E117.81434
G1 X183.887 Y159.769 E117.85777
G1 X183.138 Y161.550 E117.95666
G1 X182.670 Y162.273 E118.00077
G1 X181.988 Y163.111 E118.05605
G1 X181.370 Y163.702 E118.09982
G1 X180.576 Y164.310 E118.15100
G1 X179.606 Y164.869 E118.20832
G1 X178.406 Y165.346 E118.27443
G1 X177.373 Y165.586 E118.32871
G1 X176.101 Y165.706 E118.39412
G1 X83.841 Y165.705 E123.11689
G1 X82.735 Y165.602 E123.17375
G1 X81.884 Y165.430 E123.21820
G1 X81.054 Y165.153 E123.26299
G1 X80.048 Y164.693 E123.31960
G1 X79.285 Y164.212 E123.36574
G1 X78.428 Y163.524 E123.42202
G1 X77.815 Y162.891 E123.46715
G1 X77.190 Y162.076 E123.51970
G1 X76.633 Y161.112 E123.57669
G1 X76.162 Y159.931 E123.64177
G1 X75.920 Y158.913 E123.69536
G1 X75.795 Y157.667 E123.75943
G1 X75.797 Y102.255 E126.59599
G1 X75.906 Y101.176 E126.65150
G1 X76.086 Y100.326 E126.69595
G1 X76.362 Y99.517 E126.73972
G1 X76.826 Y98.513 E126.79634
G1 X77.303 Y97.764 E126.84180
G1 X77.989 Y96.913 E126.89773
G1 X78.619 Y96.307 E126.94252
G1 X79.424 Y95.690 E126.99440
G1 X80.394 Y95.131 E127.05172
G1 X81.452 Y94.710 E127.11002
G1 F6240
G1 X81.594 Y94.654 E127.05434
G1 X82.627 Y94.414 E126.66695
G1 X83.899 Y94.294 E126.19996
G1 X84.008 Y94.294 E126.16002
G1 E126.11002 F2400.00000
G92 E0
G1 X76.416 Y100.426 F7800.000
G1 E1.00000 F2400.00000
G1 F1500
G1 X77.128 Y98.680 E1.09652
G1 X77.587 Y97.960 E1.14022
G1 X78.249 Y97.140 E1.19417
G1 X78.851 Y96.563 E1.23688
G1 X79.632 Y95.966 E1.28720
G1 X80.557 Y95.435 E1.34181
G1 X81.705 Y94.981 E1.40501
G1 X82.688 Y94.753 E1.45664
G1 X83.904 Y94.638 E1.51919
G1 X176.006 Y94.638 E6.23386
G1 X177.525 Y94.790 E6.31199
G1 X178.815 Y95.166 E6.38079
G1 X180.159 Y95.829 E6.45751
G1 X181.426 Y96.811 E6.53953
G1 X182.430 Y97.983 E6.61856
G1 X183.098 Y99.127 E6.68637
G1 X183.614 Y100.542 E6.76345
G1 X183.849 Y102.068 E6.84250
G1 X183.852 Y157.882 E9.69958
G1 X183.558 Y159.667 E9.79220
G1 X182.837 Y161.382 E9.88740
G1 X181.729 Y162.884 E9.98294
G1 X180.368 Y164.034 E10.07416
G1 X179.443 Y164.565 E10.12877
G1 X178.295 Y165.019 E10.19199
G1 X177.312 Y165.247 E10.24362
G1 X176.096 Y165.362 E10.30616
G1 X83.858 Y165.361 E15.02779
G1 X82.788 Y165.262 E15.08279
G1 X81.970 Y165.096 E15.12550
G1 X81.179 Y164.832 E15.16821
G1 X80.209 Y164.387 E15.22282
G1 X79.476 Y163.925 E15.26718
G1 X78.650 Y163.260 E15.32146
G1 X78.067 Y162.654 E15.36450
G1 X77.466 Y161.868 E15.41515
G1 X76.940 Y160.955 E15.46910
G1 X76.489 Y159.820 E15.53164
G1 X76.259 Y158.850 E15.58261
G1 X76.140 Y157.654 E15.64417
G1 X76.142 Y102.274 E18.47907
G1 X76.407 Y100.486 E18.57160
G1 X76.747 Y100.536 F7800.000
G1 F1500
G1 X77.433 Y98.842 E18.66519
G1 X77.867 Y98.161 E18.70649
G1 X78.508 Y97.368 E18.75873
G1 X79.839 Y96.242 E18.84796
G1 X80.715 Y95.742 E18.89956
G1 X81.816 Y95.307 E18.96018
G1 X82.750 Y95.093 E19.00921
G1 X83.916 Y94.983 E19.06919
G1 X176.006 Y94.983 E23.78324
G1 X177.464 Y95.129 E23.85826
G1 X178.691 Y95.488 E23.92370
G1 X179.979 Y96.123 E23.99717
G1 X181.197 Y97.069 E24.07613
G1 X182.157 Y98.194 E24.15185
G1 X182.790 Y99.283 E24.21633
G1 X183.285 Y100.644 E24.29047
G1 X183.506 Y102.108 E24.36622
G1 X183.508 Y157.853 E27.21981
G1 X183.226 Y159.572 E27.30895
G1 X182.536 Y161.213 E27.40011
G1 X181.470 Y162.656 E27.49193
G1 X180.161 Y163.758 E27.57954
G1 X179.285 Y164.258 E27.63114
G1 X178.184 Y164.693 E27.69178
G1 X177.256 Y164.906 E27.74048
G1 X176.084 Y165.017 E27.80078
G1 X83.868 Y165.016 E32.52129
G1 X82.062 Y164.763 E32.61461
G1 X80.369 Y164.082 E32.70802
G1 X79.677 Y163.644 E32.74996
G1 X78.877 Y163.000 E32.80253
G1 X77.742 Y161.661 E32.89240
G1 X77.247 Y160.797 E32.94336
G1 X76.815 Y159.708 E33.00334
G1 X76.598 Y158.788 E33.05173
G1 X76.484 Y157.640 E33.11074
G1 X76.486 Y102.292 E35.94401
G1 X76.738 Y100.595 E36.03180
G1 X77.076 Y100.645 F7800.000
G1 F1500
G1 X77.738 Y99.003 E36.12247
G1 X78.772 Y97.590 E36.21207
G1 X80.046 Y96.518 E36.29731
G1 X80.873 Y96.049 E36.34596
G1 X81.927 Y95.634 E36.40398
G1 X82.806 Y95.433 E36.45012
G1 X83.922 Y95.328 E36.50752
G1 X176.006 Y95.328 E41.22125
G1 X177.398 Y95.468 E41.29284
G1 X178.563 Y95.808 E41.35495
G1 X179.793 Y96.413 E41.42516
G1 X180.963 Y97.323 E41.50103
G1 X181.880 Y98.400 E41.57344
G1 X182.482 Y99.439 E41.63492
G1 X182.952 Y100.735 E41.70547
G1 X183.162 Y102.146 E41.77852
G1 X183.164 Y157.825 E44.62870
G1 X182.896 Y159.471 E44.71404
G1 X182.235 Y161.045 E44.80147
G1 X181.211 Y162.428 E44.88953
G1 X179.954 Y163.482 E44.97350
G1 X179.128 Y163.951 E45.02215
G1 X178.072 Y164.366 E45.08018
G1 X177.194 Y164.567 E45.12633
G1 X176.078 Y164.672 E45.18372
G1 X83.877 Y164.671 E49.90342
G1 X82.147 Y164.429 E49.99283
G1 X80.529 Y163.777 E50.08213
G1 X79.099 Y162.736 E50.17267
G1 X78.018 Y161.454 E50.25853
G1 X77.551 Y160.633 E50.30687
G1 X77.140 Y159.590 E50.36426
G1 X76.938 Y158.724 E50.40978
G1 X76.829 Y157.627 E50.46623
G1 X76.830 Y102.310 E53.29788
G1 X77.068 Y100.705 E53.38093
G1 F6240
G1 X77.738 Y99.003 E52.71244
G1 X78.193 Y98.381 E52.43093
G1 E52.38093 F2400.00000
G92 E0
G1 X82.919 Y99.081 F7800.000
G1 E1.00000 F2400.00000
G1 F1500
G1 X83.908 Y98.913 E1.05136
G1 X176.107 Y98.915 E5.77098
G1 X176.875 Y99.022 E5.81069
G1 X177.591 Y99.284 E5.84972
G1 X178.540 Y99.970 E5.90966
G1 X179.219 Y100.915 E5.96922
G1 X179.479 Y101.632 E6.00826
G1 X179.587 Y102.418 E6.04889
G1 X179.587 Y157.582 E8.87272
G1 X179.464 Y158.427 E8.91642
G1 X179.140 Y159.232 E8.96086
G1 X178.634 Y159.934 E9.00513
G1 X177.970 Y160.497 E9.04968
G1 X177.081 Y160.919 E9.10006
G1 X176.092 Y161.087 E9.15142
G1 X83.916 Y161.087 E13.86990
